X: 31026
T: Paddy Canny's Toast
R: reel
M: 4/4
K: Gminor
GF|DG ~G2 dGcG|dGcA GFDC|DG ~G2 dGcG|dcAF AG:|
GA|~B3 c df ~f2|~g3 f f=edc|BABc df ~f2|gfdB c2 dc|
~B3 c df=ef|~g3 =e f2 df|gfdc Bdcd|BGAF G2||

